packages/dnb-ui-lib/assets/icons/account_card_medium.svg

<svg width="24" height="24" viewBox="0 0 24 24" fill="none" xmlns="http://www.w3.org/2000/svg">
<path d="M7.79899 19.4999L8.10898 19.4999V17.866L7.42999 16.9889L8.10898 16.2424V14.9999H7.62799L6.31399 16.6379V13.1999H4.99999V19.4999H6.31399V18.2129L6.63799 17.8529L7.79899 19.4999Z" fill="black"/>
<path d="M11.6222 9.74998L12.0708 9.14893L11.8712 8.99998H11.6222V9.74998ZM5.6278 9.74998V8.99998H5.37878L5.17921 9.14893L5.6278 9.74998ZM5.24999 6.74999C4.83578 6.74999 4.49999 7.08577 4.49999 7.49999C4.49999 7.9142 4.83578 8.24998 5.24999 8.24998V6.74999ZM12 8.24998C12.4142 8.24998 12.75 7.9142 12.75 7.49999C12.75 7.08577 12.4142 6.74999 12 6.74999V8.24998ZM13.5 0.749999L13.9964 1.31216C14.2473 1.09066 14.321 0.729787 14.1772 0.427644C14.0333 0.125501 13.7068 -0.0448081 13.3767 0.0102045L13.5 0.749999ZM4.49999 2.25L4.37669 1.5102C4.06112 1.5628 3.81365 1.80978 3.76044 2.12525C3.70723 2.44072 3.85999 2.75522 4.14085 2.90842L4.49999 2.25ZM5.99999 5.24999H5.24999V5.99999H5.99999V5.24999ZM10.875 5.24999V5.99999H11.625V5.24999H10.875ZM12.5901 11.5444C12.8908 11.8293 13.3655 11.8165 13.6504 11.5158C13.9353 11.2151 13.9225 10.7404 13.6218 10.4555L12.5901 11.5444ZM6.94152 23.9383C7.35447 23.9706 7.71541 23.662 7.7477 23.2491C7.77999 22.8361 7.47141 22.4752 7.05846 22.4429L6.94152 23.9383ZM11.6222 8.99998H5.6278V10.5H11.6222V8.99998ZM5.17921 9.14893C3.94385 10.0709 2.66507 11.2922 1.68835 12.6677C0.717296 14.0352 0 15.6192 0 17.25H1.5C1.5 16.0498 2.03621 14.7686 2.91136 13.5362C3.78084 12.3117 4.94096 11.1985 6.0764 10.351L5.17921 9.14893ZM5.24999 8.24998H12V6.74999H5.24999V8.24998ZM13.3767 0.0102045L4.37669 1.5102L4.62329 2.98979L13.6233 1.48979L13.3767 0.0102045ZM4.49999 2.25C4.14085 2.90842 4.1405 2.90822 4.14015 2.90803C4.14004 2.90797 4.1397 2.90778 4.13948 2.90766C4.13904 2.90742 4.13862 2.9072 4.13823 2.90698C4.13744 2.90654 4.13674 2.90616 4.13612 2.90581C4.13489 2.90512 4.134 2.90462 4.13343 2.9043C4.13229 2.90365 4.13246 2.90373 4.13384 2.90455C4.13662 2.9062 4.14423 2.91079 4.15599 2.91843C4.17958 2.93375 4.21941 2.96102 4.27021 3.00104C4.37225 3.08144 4.51535 3.21076 4.66025 3.39518C4.94382 3.75608 5.24999 4.34614 5.24999 5.24999H6.74999C6.74999 3.97202 6.30616 3.06209 5.83973 2.46845C5.60963 2.17559 5.37773 1.96401 5.19852 1.82281C5.1087 1.75204 5.03134 1.69835 4.9729 1.6604C4.94364 1.6414 4.91902 1.62628 4.89983 1.61488C4.89023 1.60918 4.88197 1.6044 4.87516 1.60052C4.87176 1.59859 4.86871 1.59687 4.86603 1.59538C4.86469 1.59464 4.86345 1.59395 4.8623 1.59331C4.86172 1.593 4.86117 1.59269 4.86064 1.5924C4.86038 1.59226 4.86 1.59205 4.85987 1.59198C4.8595 1.59178 4.85913 1.59158 4.49999 2.25ZM5.99999 5.99999H10.875V4.49999H5.99999V5.99999ZM11.625 5.24999C11.625 4.42244 12.1435 3.4682 12.7817 2.63938C13.0872 2.2426 13.3945 1.90722 13.6258 1.67093C13.741 1.55322 13.8363 1.46121 13.9016 1.39966C13.9342 1.36891 13.9593 1.34584 13.9755 1.33104C13.9836 1.32364 13.9896 1.31832 13.9931 1.31515C13.9949 1.31356 13.996 1.31251 13.9966 1.31201C13.9969 1.31176 13.997 1.31165 13.997 1.31167C13.997 1.31169 13.9969 1.31173 13.9968 1.31181C13.9968 1.31185 13.9967 1.31194 13.9967 1.31196C13.9965 1.31206 13.9964 1.31216 13.5 0.749999C13.0035 0.187834 13.0034 0.187957 13.0032 0.188088C13.0032 0.188143 13.003 0.188284 13.0029 0.188395C13.0026 0.188617 13.0023 0.188876 13.002 0.18917C13.0013 0.189758 13.0005 0.190489 12.9995 0.191361C12.9976 0.193105 12.995 0.195415 12.9918 0.198281C12.9854 0.204014 12.9766 0.211975 12.9655 0.22209C12.9433 0.242314 12.9119 0.271178 12.8728 0.308077C12.7945 0.381823 12.6847 0.487971 12.5538 0.621684C12.2929 0.888232 11.944 1.26876 11.5932 1.72424C10.9189 2.59997 10.125 3.89573 10.125 5.24999H11.625ZM13.6218 10.4555C13.1157 9.97601 12.5905 9.53682 12.0708 9.14893L11.1736 10.351C11.6473 10.7046 12.1275 11.1061 12.5901 11.5444L13.6218 10.4555ZM0 17.25C0 19.1201 0.418984 20.7414 1.58997 21.9344C2.75054 23.1168 4.52447 23.7493 6.94152 23.9383L7.05846 22.4429C4.80946 22.267 3.45839 21.6966 2.66048 20.8837C1.87299 20.0814 1.5 18.9148 1.5 17.25H0ZM11.25 15H22.25V13.5H11.25V15ZM22.25 22.5H11.25V24H22.25V22.5ZM11 22.25V19.75H9.49998V22.25H11ZM11 19.75V15.25H9.49998V19.75H11ZM22.5 15.25V19.75H24V15.25H22.5ZM22.5 19.75V22.25H24V19.75H22.5ZM10.25 20.5H23.25V19H10.25V20.5ZM11.25 22.5C11.1119 22.5 11 22.388 11 22.25H9.49998C9.49998 23.2165 10.2835 24 11.25 24V22.5ZM22.25 24C23.2165 24 24 23.2165 24 22.25H22.5C22.5 22.388 22.388 22.5 22.25 22.5V24ZM22.25 15C22.388 15 22.5 15.1119 22.5 15.25H24C24 14.2835 23.2165 13.5 22.25 13.5V15ZM11.25 13.5C10.2835 13.5 9.49998 14.2835 9.49998 15.25H11C11 15.1119 11.1119 15 11.25 15V13.5Z" fill="black"/>
</svg>

<svg width="24" height="24" viewBox="0 0 24 24" fill="none" xmlns="http://www.w3.org/2000/svg"><path d="M7.799 19.5h.31v-1.634l-.679-.877.679-.747V15h-.481l-1.314 1.638V13.2H5v6.3h1.314v-1.287l.324-.36L7.799 19.5zm3.823-9.75l.449-.601-.2-.149h-.249v.75zm-5.994 0V9h-.25l-.199.149.449.601zm-.378-3a.75.75 0 100 1.5v-1.5zM12 8.25a.75.75 0 000-1.5v1.5zm1.5-7.5l.496.562a.75.75 0 00-.62-1.302l.124.74zm-9 1.5l-.123-.74a.75.75 0 00-.236 1.398L4.5 2.25zm1.5 3h-.75V6H6v-.75zm4.875 0V6h.75v-.75h-.75zm1.715 6.294a.75.75 0 101.032-1.088l-1.032 1.088zM6.942 23.938a.75.75 0 10.116-1.495l-.116 1.495zM11.622 9H5.628v1.5h5.994V9zm-6.443.149c-1.235.922-2.514 2.143-3.49 3.519C.716 14.035 0 15.619 0 17.25h1.5c0-1.2.536-2.481 1.411-3.714.87-1.224 2.03-2.338 3.165-3.185L5.18 9.149zm.071-.899H12v-1.5H5.25v1.5zM13.377.01l-9 1.5.246 1.48 9-1.5-.246-1.48zM4.5 2.25l-.36.658-.002-.001-.002-.001-.003-.002A1.568 1.568 0 014.27 3c.103.081.246.21.391.395.284.361.59.951.59 1.855h1.5c0-1.278-.444-2.188-.91-2.782a3.86 3.86 0 00-.641-.645 3.059 3.059 0 00-.337-.23h-.001l-.001-.001-.36.658zM6 6h4.875V4.5H6V6zm5.625-.75c0-.828.518-1.782 1.157-2.61a11.01 11.01 0 011.194-1.309l.017-.016.004-.003L13.5.75l-.497-.562-.001.001-.003.002-.007.007a4.368 4.368 0 00-.12.11 12.53 12.53 0 00-1.28 1.416c-.673.876-1.467 2.172-1.467 3.526h1.5zm1.997 5.206a17.403 17.403 0 00-1.551-1.307l-.897 1.202c.473.354.954.755 1.416 1.193l1.032-1.088zM0 17.25c0 1.87.419 3.491 1.59 4.684 1.16 1.183 2.934 1.815 5.352 2.004l.116-1.495c-2.249-.176-3.6-.746-4.398-1.56-.787-.802-1.16-1.968-1.16-3.633H0zM11.25 15h11v-1.5h-11V15zm11 7.5h-11V24h11v-1.5zM11 22.25v-2.5H9.5v2.5H11zm0-2.5v-4.5H9.5v4.5H11zm11.5-4.5v4.5H24v-4.5h-1.5zm0 4.5v2.5H24v-2.5h-1.5zm-12.25.75h13V19h-13v1.5zm1 2a.25.25 0 01-.25-.25H9.5c0 .966.784 1.75 1.75 1.75v-1.5zm11 1.5A1.75 1.75 0 0024 22.25h-1.5a.25.25 0 01-.25.25V24zm0-9a.25.25 0 01.25.25H24a1.75 1.75 0 00-1.75-1.75V15zm-11-1.5a1.75 1.75 0 00-1.75 1.75H11a.25.25 0 01.25-.25v-1.5z" fill="#000"/></svg>
